web-magafilio/image/home/icon-transparencia.svg

<svg width="74" height="73" viewBox="0 0 74 73" fill="none" xmlns="http://www.w3.org/2000/svg">
<path d="M72.062 19.7708H59.8953C58.2819 19.7708 56.7346 19.1299 55.5938 17.989C54.4529 16.8482 53.812 15.3009 53.812 13.6875V1.52081L72.062 19.7708Z" fill="#F6B445"/>
<path d="M72.0621 19.7708V65.3958C72.0621 67.0092 71.4211 68.5565 70.2803 69.6974C69.1394 70.8382 67.5921 71.4791 65.9787 71.4791H14.2704C8.18707 71.4791 8.18707 65.3958 8.18707 65.3958V7.60415C8.18707 5.99075 8.82799 4.44343 9.96884 3.30258C11.1097 2.16173 12.657 1.52081 14.2704 1.52081H53.8121V13.6875C53.8121 15.3009 54.453 16.8482 55.5938 17.989C56.7347 19.1299 58.282 19.7708 59.8954 19.7708H72.0621Z" fill="#FED049"/>
<path d="M21.8745 56.2708H18.8329C17.153 56.2708 15.7912 57.6326 15.7912 59.3125V68.4375C15.7912 70.1173 17.153 71.4791 18.8329 71.4791H21.8745C23.5544 71.4791 24.9162 70.1173 24.9162 68.4375V59.3125C24.9162 57.6326 23.5544 56.2708 21.8745 56.2708Z" fill="#00CBA9"/>
<path d="M20.3537 47.1458C30.4329 47.1458 38.6037 38.975 38.6037 28.8958C38.6037 18.8166 30.4329 10.6458 20.3537 10.6458C10.2745 10.6458 2.1037 18.8166 2.1037 28.8958C2.1037 38.975 10.2745 47.1458 20.3537 47.1458Z" fill="#F1F2F2"/>
<path d="M73.1372 18.6956L54.8872 0.445604C54.6013 0.161635 54.215 0.00157384 53.812 0L14.2704 0C12.2544 0.00241487 10.3216 0.804341 8.89607 2.22988C7.47054 3.65541 6.66861 5.58816 6.6662 7.60417C6.6662 8.00751 6.82643 8.39434 7.11164 8.67956C7.39685 8.96477 7.78368 9.125 8.18703 9.125C8.59038 9.125 8.97721 8.96477 9.26242 8.67956C9.54763 8.39434 9.70786 8.00751 9.70786 7.60417C9.70786 6.39411 10.1886 5.23363 11.0442 4.37799C11.8998 3.52236 13.0603 3.04167 14.2704 3.04167H52.2912V13.6875C52.2936 15.7035 53.0955 17.6363 54.5211 19.0618C55.9466 20.4873 57.8793 21.2892 59.8954 21.2917H62.937C63.3404 21.2917 63.7272 21.1314 64.0124 20.8462C64.2976 20.561 64.4578 20.1742 64.4578 19.7708C64.4578 19.3675 64.2976 18.9806 64.0124 18.6954C63.7272 18.4102 63.3404 18.25 62.937 18.25H59.8954C58.6853 18.25 57.5248 17.7693 56.6692 16.9137C55.8135 16.058 55.3329 14.8975 55.3329 13.6875V5.19212L70.5412 20.4005V65.3958C70.5412 66.6059 70.0605 67.7664 69.2049 68.622C68.3492 69.4776 67.1887 69.9583 65.9787 69.9583H32.5204C32.117 69.9583 31.7302 70.1185 31.445 70.4038C31.1598 70.689 30.9995 71.0758 30.9995 71.4791C30.9995 71.8825 31.1598 72.2693 31.445 72.5545C31.7302 72.8398 32.117 73 32.5204 73H65.9787C67.9947 72.9976 69.9274 72.1956 71.353 70.7701C72.7785 69.3446 73.5804 67.4118 73.5828 65.3958V19.7708C73.5828 19.3675 73.4225 18.9807 73.1372 18.6956Z" fill="#474C54"/>
<path d="M21.8746 54.7501V48.5892C26.9712 48.1959 31.7175 45.844 35.1174 42.0268C38.5173 38.2096 40.3067 33.2239 40.1099 28.1159C39.9132 23.0079 37.7456 18.1747 34.0621 14.6303C30.3786 11.086 25.4655 9.10608 20.3537 9.10608C15.2419 9.10608 10.3288 11.086 6.64533 14.6303C2.96184 18.1747 0.794304 23.0079 0.59755 28.1159C0.400797 33.2239 2.19012 38.2096 5.59005 42.0268C8.98999 45.844 13.7362 48.1959 18.8329 48.5892V54.7501C17.6228 54.7501 16.4624 55.2307 15.6067 56.0864C14.7511 56.942 14.2704 58.1025 14.2704 59.3125V68.4375C14.2704 69.6476 14.7511 70.8081 15.6067 71.6637C16.4624 72.5194 17.6228 73 18.8329 73H21.8746C23.0846 73 24.2451 72.5194 25.1007 71.6637C25.9564 70.8081 26.4371 69.6476 26.4371 68.4375V59.3125C26.4371 58.1025 25.9564 56.942 25.1007 56.0864C24.2451 55.2307 23.0846 54.7501 21.8746 54.7501ZM3.62457 28.8959C3.62457 25.5872 4.60571 22.3528 6.44394 19.6017C8.28216 16.8506 10.8949 14.7063 13.9518 13.4402C17.0086 12.174 20.3723 11.8427 23.6174 12.4882C26.8626 13.1337 29.8434 14.727 32.183 17.0666C34.5227 19.4062 36.1159 22.3871 36.7614 25.6322C37.4069 28.8773 37.0756 32.241 35.8095 35.2979C34.5433 38.3547 32.3991 40.9675 29.648 42.8057C26.8969 44.6439 23.6624 45.6251 20.3537 45.6251C15.9185 45.6198 11.6664 43.8556 8.5302 40.7194C5.39401 37.5832 3.6298 33.3311 3.62457 28.8959ZM23.3954 68.4375C23.3954 68.8409 23.2352 69.2277 22.95 69.5129C22.6647 69.7982 22.2779 69.9584 21.8746 69.9584H18.8329C18.4295 69.9584 18.0427 69.7982 17.7575 69.5129C17.4723 69.2277 17.3121 68.8409 17.3121 68.4375V59.3125C17.3121 58.9092 17.4723 58.5224 17.7575 58.2372C18.0427 57.952 18.4295 57.7917 18.8329 57.7917H21.8746C22.2779 57.7917 22.6647 57.952 22.95 58.2372C23.2352 58.5224 23.3954 58.9092 23.3954 59.3125V68.4375Z" fill="#474C54"/>
<path d="M21.8745 19.7708C21.8745 19.3675 21.7143 18.9807 21.4291 18.6954C21.1439 18.4102 20.7571 18.25 20.3537 18.25C17.5313 18.2532 14.8253 19.3759 12.8295 21.3716C10.8338 23.3674 9.71111 26.0734 9.70789 28.8958C9.70789 29.2992 9.86812 29.686 10.1533 29.9712C10.4385 30.2564 10.8254 30.4167 11.2287 30.4167C11.6321 30.4167 12.0189 30.2564 12.3041 29.9712C12.5893 29.686 12.7496 29.2992 12.7496 28.8958C12.752 26.8798 13.5539 24.9471 14.9794 23.5215C16.405 22.096 18.3377 21.2941 20.3537 21.2917C20.7571 21.2917 21.1439 21.1314 21.4291 20.8462C21.7143 20.561 21.8745 20.1742 21.8745 19.7708Z" fill="#474C54"/>
</svg>

<svg width="74" height="73" fill="none" xmlns="http://www.w3.org/2000/svg"><path d="M72.062 19.77H59.895a6.083 6.083 0 01-6.083-6.082V1.52l18.25 18.25z" fill="#F6B445"/><path d="M72.062 19.77v45.626a6.084 6.084 0 01-6.083 6.083H14.27c-6.083 0-6.083-6.083-6.083-6.083V7.604a6.083 6.083 0 016.083-6.083h39.542v12.166a6.083 6.083 0 006.083 6.084h12.167z" fill="#FED049"/><path d="M21.875 56.27h-3.042a3.042 3.042 0 00-3.042 3.042v9.126a3.042 3.042 0 003.042 3.041h3.042a3.042 3.042 0 003.041-3.041v-9.126a3.042 3.042 0 00-3.041-3.041z" fill="#00CBA9"/><path d="M20.354 47.146c10.079 0 18.25-8.171 18.25-18.25 0-10.08-8.171-18.25-18.25-18.25-10.08 0-18.25 8.17-18.25 18.25 0 10.079 8.17 18.25 18.25 18.25z" fill="#F1F2F2"/><path d="M73.137 18.696L54.887.446A1.534 1.534 0 0053.812 0H14.27a7.613 7.613 0 00-7.604 7.604 1.52 1.52 0 003.042 0 4.563 4.563 0 014.562-4.562h38.021v10.646a7.613 7.613 0 007.604 7.604h3.042a1.52 1.52 0 000-3.042h-3.042a4.563 4.563 0 01-4.562-4.563V5.193L70.54 20.401v44.995a4.563 4.563 0 01-4.562 4.562H32.52a1.52 1.52 0 100 3.042H65.98a7.614 7.614 0 007.604-7.604V19.77c0-.404-.16-.79-.446-1.075z" fill="#474C54"/><path d="M21.875 54.75v-6.16a19.771 19.771 0 10-3.042 0v6.16a4.562 4.562 0 00-4.563 4.563v9.124A4.563 4.563 0 0018.833 73h3.042a4.562 4.562 0 004.562-4.563v-9.124a4.562 4.562 0 00-4.562-4.563zM3.625 28.896a16.73 16.73 0 1116.729 16.73 16.75 16.75 0 01-16.73-16.73zm19.77 39.541a1.52 1.52 0 01-1.52 1.521h-3.042a1.52 1.52 0 01-1.52-1.52v-9.126a1.52 1.52 0 011.52-1.52h3.042a1.521 1.521 0 011.52 1.52v9.126z" fill="#474C54"/><path d="M21.875 19.77a1.521 1.521 0 00-1.521-1.52A10.658 10.658 0 009.708 28.896a1.52 1.52 0 103.042 0 7.613 7.613 0 017.604-7.604 1.52 1.52 0 001.52-1.521z" fill="#474C54"/></svg>
